Simply-Green-Circles/scalable/mimes/application-vnd.android.package-archive.svg

<svg xmlns="http://www.w3.org/2000/svg" width="48" height="48" viewBox="0 0 12.7 12.7"><path d="M1.21.86L.14 3.66h6.04V.86H1.21zm5.18 0v2.8h6.11L11.4.86h-5zM.19 3.89v6.31c0 .64.25 1.18.74 1.64.5.45 1.08.67 1.78.67h7.25c.7 0 1.28-.22 1.78-.67.49-.46.73-1 .73-1.64V3.9h-1.12v6.3c0 .36-.13.66-.4.91a1.4 1.4 0 0 1-.99.38H2.71a1.4 1.4 0 0 1-.99-.38 1.19 1.19 0 0 1-.41-.9V3.88H.19zm5.3 1.24h-.03a.05.05 0 0 0 0 .07l.2.3c-.47.17-.79.54-.79 1.1h2.85c0-.57-.34-.96-.83-1.13l.2-.27c.01-.02.01-.05-.01-.06-.02-.02-.05-.01-.06.01l-.22.3a1.88 1.88 0 0 0-1.06 0l-.22-.3a.05.05 0 0 0-.03-.02zm.4.66c.11 0 .2.09.2.2a.2.2 0 1 1-.4 0c0-.11.09-.2.2-.2zm.81 0c.12 0 .2.09.2.2a.2.2 0 0 1-.2.2.2.2 0 1 1 0-.4zM4.08 7c-.24 0-.43.12-.43.27v1.08c0 .15.2.27.43.27.23 0 .38-.12.38-.27V7.28c0-.15-.15-.27-.38-.27zm.8 0v2.24c0 .1.08.2.2.2h.2V10c0 .17.26.25.4.25.15 0 .43-.08.41-.25v-.56h.41V10c0 .17.26.25.4.25.15 0 .42-.08.41-.25v-.56h.2a.2.2 0 0 0 .21-.2V7H4.87zm3.67 0c-.23 0-.42.12-.42.27v1.08c0 .15.19.27.42.27.24 0 .4-.12.4-.27V7.28c0-.15-.16-.27-.4-.27z" fill="#2ca02c"/></svg>

<?xml version="1.0" encoding="UTF-8" standalone="no"?>
<svg
   xmlns:dc="http://purl.org/dc/elements/1.1/"
   xmlns:cc="http://creativecommons.org/ns#"
   xmlns:rdf="http://www.w3.org/1999/02/22-rdf-syntax-ns#"
   xmlns:svg="http://www.w3.org/2000/svg"
   xmlns="http://www.w3.org/2000/svg"
   xmlns:sodipodi="http://sodipodi.sourceforge.net/DTD/sodipodi-0.dtd"
   xmlns:inkscape="http://www.inkscape.org/namespaces/inkscape"
   width="48"
   height="48"
   viewBox="0 0 12.7 12.7"
   version="1.1"
   id="svg6"
   sodipodi:docname="application-vnd.android.package-archive.svg"
   inkscape:version="0.92.4 (5da689c313, 2019-01-14)">
  <defs
     id="defs10" />
  <sodipodi:namedview
     pagecolor="#ffffff"
     bordercolor="#666666"
     borderopacity="1"
     objecttolerance="10"
     gridtolerance="10"
     guidetolerance="10"
     inkscape:pageopacity="0"
     inkscape:pageshadow="2"
     inkscape:window-width="1087"
     inkscape:window-height="480"
     id="namedview8"
     showgrid="false"
     inkscape:zoom="4.9166667"
     inkscape:cx="2.1355932"
     inkscape:cy="24"
     inkscape:window-x="0"
     inkscape:window-y="25"
     inkscape:window-maximized="0"
     inkscape:current-layer="svg6" />
  <metadata
     id="metadata2">
    <rdf:RDF>
      <cc:Work>
        <dc:format>image/svg+xml</dc:format>
        <dc:type
           rdf:resource="http://purl.org/dc/dcmitype/StillImage" />
        <dc:title></dc:title>
      </cc:Work>
    </rdf:RDF>
  </metadata>
  <path
     d="m 1.21,0.86 -1.07,2.8 h 6.04 v -2.8 z m 5.18,0 v 2.8 h 6.11 l -1.1,-2.8 h -5 z m -6.2,3.03 v 6.31 c 0,0.64 0.25,1.18 0.74000003,1.64 C 1.43,12.29 2.01,12.51 2.71,12.51 H 9.9600003 C 10.66,12.51 11.24,12.29 11.74,11.84 c 0.49,-0.46 0.73,-1 0.73,-1.64 V 3.9 h -1.12 v 6.3 c 0,0.36 -0.13,0.66 -0.4,0.91 A 1.4,1.4 0 0 1 9.9600003,11.49 H 2.71 A 1.4,1.4 0 0 1 1.72,11.11 1.19,1.19 0 0 1 1.31,10.21 V 3.88 H 0.19 Z m 5.3,1.24 H 5.46 c -0.02,0.02 -0.02,0.05 0,0.07 l 0.2,0.3 C 5.19,5.67 4.87,6.04 4.87,6.6 H 7.72 C 7.72,6.03 7.38,5.64 6.89,5.47 L 7.09,5.2 C 7.1,5.18 7.1,5.15 7.08,5.14 7.06,5.12 7.03,5.13 7.02,5.15 L 6.8,5.45 a 1.88,1.88 0 0 0 -1.06,0 L 5.52,5.15 A 0.05,0.05 0 0 0 5.49,5.13 Z m 0.4,0.66 c 0.11,0 0.2,0.09 0.2,0.2 a 0.2,0.2 0 1 1 -0.4,0 c 0,-0.11 0.09,-0.2 0.2,-0.2 z m 0.81,0 c 0.12,0 0.2,0.09 0.2,0.2 0,0.11 -0.08,0.2 -0.2,0.2 a 0.2,0.2 0 1 1 0,-0.4 z M 4.08,7 C 3.84,7 3.65,7.12 3.65,7.27 v 1.08 c 0,0.15 0.2,0.27 0.43,0.27 0.23,0 0.38,-0.12 0.38,-0.27 V 7.28 C 4.46,7.13 4.31,7.01 4.08,7.01 Z m 0.8,0 v 2.24 c 0,0.1 0.08,0.2 0.2,0.2 h 0.2 V 10 c 0,0.17 0.26,0.25 0.4,0.25 0.15,0 0.43,-0.08 0.41,-0.25 V 9.44 H 6.5 V 10 c 0,0.17 0.26,0.25 0.4,0.25 0.15,0 0.42,-0.08 0.41,-0.25 V 9.44 h 0.2 c 0.12,0 0.21,-0.1 0.21,-0.2 V 7 H 4.87 Z M 8.55,7 C 8.32,7 8.13,7.12 8.13,7.27 v 1.08 c 0,0.15 0.19,0.27 0.42,0.27 0.24,0 0.4,-0.12 0.4,-0.27 V 7.28 C 8.95,7.13 8.79,7.01 8.55,7.01 Z"
     id="path4"
     inkscape:connector-curvature="0"
     style="fill:#2ca02c" />
</svg>
